X:1
T: Kings X
C:Muriel A Johnstone
R:Jig
%Q:180
K:G
M:6/8
L:1/16
e2|d4B2 A3FD2|G2D2B,2 G,2B,2D2|G4g2 d2c2B2|A2F2D2 D4e2|d3BG2 A3FD2|G4D2 B,2C2D2|E2A2G2 F2d2c2|B2G2G2 G4e2|
d4B2 A3FD2|G2D2B,2 G,2B,2D2|G4g2 d2c2B2|A2F2D2 D4e2|d3BG2 A3FD2|G4D2 B,2C2D2|E2A2G2 F2d2c2|B2G2G2G4a2|
b6a2g2f2|g6g2f2e2|d3Bg2 d2c2B2|A2F2D2 D4a2|b6a2g2f2|g6g2f2e2|d3Bg2 A3Fd2|B2G2G2 G4a2|
b6a2g2f2|g6g2f2e2|d4g2 d2c2B2|A2F2D2 D4e2|d4B2 A3FD2|G2D2B,2 G,2B,2D2|E2A2G2 F2d2c2|B2G2G2G4||
